icons/justfile.svg

<!--
  - The MIT License (MIT)
  -
  - Copyright (c) 2015-2024 Elior "Mallowigi" Boukhobza
  -
  - Permission is hereby granted, free of charge, to any person obtaining a copy
  - of this software and associated documentation files (the "Software"), to deal
  - in the Software without restriction, including without limitation the rights
  - to use, copy, modify, merge, publish, distribute, sublicense, and/or sell
  - copies of the Software, and to permit persons to whom the Software is
  - furnished to do so, subject to the following conditions:
  -
  - The above copyright notice and this permission notice shall be included in all
  - copies or substantial portions of the Software.
  -
  - THE SOFTWARE IS PROVIDED "AS IS", WITHOUT WARRANTY OF ANY KIND, EXPRESS OR
  - IMPLIED, INCLUDING BUT NOT LIMITED TO THE WARRANTIES OF MERCHANTABILITY,
  - FITNESS FOR A PARTICULAR PURPOSE AND NONINFRINGEMENT. IN NO EVENT SHALL THE
  - AUTHORS OR COPYRIGHT HOLDERS BE LIABLE FOR ANY CLAIM, DAMAGES OR OTHER
  - LIABILITY, WHETHER IN AN ACTION OF CONTRACT, TORT OR OTHERWISE, ARISING FROM,
  - OUT OF OR IN CONNECTION WITH THE SOFTWARE OR THE USE OR OTHER DEALINGS IN THE
  - SOFTWARE.
  -
  -->

<svg xmlns="http://www.w3.org/2000/svg" width="16px" height="16px"
     viewBox="0 0 40 40" version="1.1">
  <path fill="#000000" data-iconColor="Justfile"
        d="M 18.652344 0.0429688 C 12.5 0.449219 6.828125 3.730469 3.378906 8.886719 C 1.625 11.511719 0.542969 14.40625 0.15625 17.519531 C -0.777344 25.042969 2.589844 32.410156 8.886719 36.621094 C 12.90625 39.308594 17.675781 40.4375 22.480469 39.84375 C 29.484375 38.972656 35.546875 34.429688 38.351562 27.949219 C 40.546875 22.882812 40.546875 17.117188 38.351562 12.050781 C 36.34375 7.414062 32.585938 3.65625 27.949219 1.648438 C 25.039062 0.386719 21.839844 -0.164062 18.652344 0.0429688 Z M 21.132812 4.082031 C 23.3125 4.570312 24.796875 6.085938 25.28125 8.320312 C 25.355469 8.675781 25.367188 8.839844 25.367188 9.570312 C 25.367188 10.285156 25.355469 10.46875 25.28125 10.804688 C 24.800781 13.023438 23.339844 14.527344 21.207031 15.007812 C 20.855469 15.085938 20.695312 15.097656 20 15.097656 C 19.304688 15.097656 19.144531 15.085938 18.792969 15.007812 C 16.660156 14.527344 15.199219 13.023438 14.71875 10.804688 C 14.644531 10.46875 14.632812 10.285156 14.632812 9.570312 C 14.632812 8.839844 14.644531 8.675781 14.71875 8.320312 C 15.070312 6.699219 15.941406 5.460938 17.273438 4.683594 C 17.777344 4.386719 18.429688 4.15625 19.082031 4.042969 C 19.507812 3.96875 20.726562 3.992188 21.132812 4.082031 Z M 21.132812 25.019531 C 22.769531 25.378906 24.085938 26.390625 24.789062 27.832031 C 25.035156 28.335938 25.15625 28.695312 25.277344 29.257812 C 25.355469 29.613281 25.367188 29.78125 25.367188 30.507812 C 25.367188 31.226562 25.355469 31.402344 25.28125 31.742188 C 24.898438 33.503906 23.933594 34.78125 22.441406 35.511719 C 21.644531 35.898438 20.949219 36.054688 20 36.054688 C 19.050781 36.054688 18.355469 35.898438 17.558594 35.511719 C 16.066406 34.78125 15.101562 33.503906 14.71875 31.742188 C 14.644531 31.402344 14.632812 31.226562 14.632812 30.507812 C 14.632812 29.78125 14.644531 29.613281 14.722656 29.257812 C 14.84375 28.695312 14.964844 28.335938 15.210938 27.832031 C 15.957031 26.304688 17.371094 25.269531 19.121094 24.976562 C 19.542969 24.90625 20.730469 24.933594 21.132812 25.019531 Z M 21.132812 25.019531 "/>
</svg>

<svg xmlns="http://www.w3.org/2000/svg" viewBox="0 0 40 40"><path d="M18.652.043C12.5.449 6.828 3.73 3.38 8.887A19.8 19.8 0 0 0 .156 17.52a19.98 19.98 0 0 0 8.73 19.101 19.92 19.92 0 0 0 13.594 3.223 20.03 20.03 0 0 0 15.872-11.895 20 20 0 0 0 0-15.898A20.1 20.1 0 0 0 27.949 1.648 20.1 20.1 0 0 0 18.652.043m2.48 4.039c2.18.488 3.665 2.004 4.15 4.238.073.356.085.52.085 1.25 0 .715-.012.899-.086 1.235-.48 2.218-1.941 3.722-4.074 4.203-.352.078-.512.09-1.207.09s-.855-.012-1.207-.09c-2.133-.48-3.594-1.985-4.074-4.203-.074-.336-.086-.52-.086-1.235 0-.73.012-.894.086-1.25.351-1.62 1.222-2.86 2.554-3.636a5.6 5.6 0 0 1 1.809-.641c.426-.074 1.645-.05 2.05.039m0 20.938c1.638.359 2.954 1.37 3.657 2.812.246.504.367.863.488 1.426.078.355.09.523.09 1.25 0 .719-.012.894-.086 1.234-.383 1.762-1.347 3.04-2.84 3.77-.796.386-1.492.543-2.441.543-.95 0-1.645-.157-2.441-.543-1.493-.73-2.457-2.008-2.84-3.77-.074-.34-.086-.515-.086-1.234 0-.727.012-.895.09-1.25a5.5 5.5 0 0 1 .488-1.426c.746-1.527 2.16-2.562 3.91-2.855.422-.07 1.61-.043 2.012.043m0 0" data-iconColor="Justfile"/></svg>
